OJJO/img/footer/footer-mail.svg

<svg width="20" height="20" fill="none" xmlns="http://www.w3.org/2000/svg"><path d="M1.574 5.286l7.5 4.029c.252.135.578.199.906.199.328 0 .654-.064.906-.199l7.5-4.029c.489-.263.951-1.286.054-1.286H1.521c-.897 0-.435 1.023.053 1.286zm17.039 2.203l-7.727 4.027c-.34.178-.578.199-.906.199-.328 0-.566-.021-.906-.199-.34-.178-7.133-3.739-7.688-4.028-.39-.204-.386.035-.386.219V15c0 .42.566 1 1 1h16c.434 0 1-.58 1-1V7.708c0-.184.004-.423-.387-.219z" fill="#333"/></svg>

<svg width="20" height="20" viewBox="0 0 20 20" fill="none" xmlns="http://www.w3.org/2000/svg">
<path d="M1.574 5.286L9.074 9.315C9.326 9.45 9.652 9.514 9.98 9.514C10.308 9.514 10.634 9.45 10.886 9.315L18.386 5.286C18.875 5.023 19.337 4 18.44 4H1.521C0.624 4 1.086 5.023 1.574 5.286ZM18.613 7.489L10.886 11.516C10.546 11.694 10.308 11.715 9.98 11.715C9.652 11.715 9.414 11.694 9.074 11.516C8.734 11.338 1.941 7.777 1.386 7.488C0.996 7.284 1 7.523 1 7.707V15C1 15.42 1.566 16 2 16H18C18.434 16 19 15.42 19 15V7.708C19 7.524 19.004 7.285 18.613 7.489Z" fill="#333333"/>
</svg>
